X: 6
T: Stoney Steps
R: reel
M: 4/4
L: 1/8
K: Dmaj
|:A3B AF F2|AFdf efdB|FA A2 BdAF| EFGE FDDB|
A3B AF F2|AFdf efdB|AF F2 dF F2|2 EFGE FD D2||
|:fedc defg|a2 bf afeg|fded fded|(3Bcd fd edeg|
fedc defg|a2 bf afeg|f3a e3f|dfaf efdB||
|:A3B AF F2|ABdf efdB|AD D2 BDAD|EFGE FDdB|
A^GAB AF F2|ABdf afed|FA A2 BFAF|EFGE FAde||
|:fd d2 d2fg|a2bf afeg|fd d2 dBAF|BFAF E3g|
fd d2 d2fg|a2bf afeg|f3d e2de|fdaf efdB||


Tune 571	Setting 571

